src/assets/img/brikkspictogramme.svg

<?xml version="1.0" encoding="iso-8859-1"?>
<!-- Generator: Adobe Illustrator 26.0.3, SVG Export Plug-In . SVG Version: 6.00 Build 0)  -->
<svg version="1.1" id="Calque_1" xmlns="http://www.w3.org/2000/svg" xmlns:xlink="http://www.w3.org/1999/xlink" x="0px" y="0px"
	 width="184.168px" height="165.642px" viewBox="0 0 184.168 165.642" enable-background="new 0 0 184.168 165.642"
	 xml:space="preserve">
<g>
	<path fill="#211F2D" d="M62.094,101.671l-20.64-19.957c-1.285-1.242-0.405-3.416,1.381-3.416h12.455
		c0.525,0,1.028,0.208,1.401,0.578l15.123,15.027c1.254,1.246,3.388,0.358,3.388-1.41v-55.27c0-1.097,0.89-1.987,1.987-1.987H57.401
		c-13.945,0-25.354,9.789-25.354,21.752v58.218c0,6.414,3.298,12.185,8.489,16.175l21.726-27.038
		C62.905,103.543,62.833,102.384,62.094,101.671z M39.49,63.426v-2.271c0-2.284,1.852-4.137,4.136-4.137h9.163
		c2.285,0,4.136,1.852,4.136,4.137v2.271c0,2.285-1.852,4.137-4.136,4.137h-9.163C41.342,67.562,39.49,65.71,39.49,63.426z"/>
	<path fill="#211F2D" d="M75.202,134.972v-19.775c0-0.527-0.209-1.032-0.582-1.405c-0.843-0.843-2.234-0.759-2.97,0.18
		l-17.413,22.226c-0.162,0.207-0.366,0.368-0.589,0.494c1.229,0.159,2.475,0.267,3.753,0.267h19.788
		C76.092,136.959,75.202,136.069,75.202,134.972z"/>
	<path fill="#211F2D" d="M114.086,113.971c-0.735-0.939-2.126-1.023-2.969-0.18c-0.373,0.373-0.582,0.878-0.582,1.405v19.775
		c0,1.097-0.89,1.987-1.987,1.987h17.354c1.984,0,3.908-0.219,5.764-0.593c-0.056-0.056-0.117-0.106-0.166-0.169L114.086,113.971z"
		/>
	<path fill="#211F2D" d="M151.255,115.206V56.989c0-11.964-11.41-21.752-25.354-21.752h-17.354c1.098,0,1.987,0.89,1.987,1.987
		v55.27c0,1.767,2.134,2.655,3.388,1.41l15.123-15.027c0.372-0.37,0.876-0.578,1.401-0.578H142.9c1.787,0,2.666,2.174,1.381,3.416
		l-20.64,19.957c-0.738,0.714-0.811,1.873-0.168,2.673l20.754,25.828C148.567,126.264,151.255,120.996,151.255,115.206z"/>
	<path fill="#211F2D" d="M96.983,134.972V37.223c0-1.097,0.89-1.987,1.987-1.987H86.766c1.098,0,1.987,0.89,1.987,1.987v97.748
		c0,1.097-0.89,1.987-1.987,1.987h12.205C97.873,136.959,96.983,136.069,96.983,134.972z"/>
</g>
<g>
</g>
<g>
</g>
<g>
</g>
<g>
</g>
<g>
</g>
<g>
</g>
</svg>

<?xml version="1.0" encoding="UTF-8" standalone="no"?>
<!DOCTYPE svg PUBLIC "-//W3C//DTD SVG 1.1//EN" "http://www.w3.org/Graphics/SVG/1.1/DTD/svg11.dtd">
<svg width="100%" height="100%" viewBox="0 0 120 102" version="1.1" xmlns="http://www.w3.org/2000/svg" xmlns:xlink="http://www.w3.org/1999/xlink" xml:space="preserve" xmlns:serif="http://www.serif.com/" style="fill-rule:evenodd;clip-rule:evenodd;stroke-linejoin:round;stroke-miterlimit:2;">
    <g transform="matrix(1,0,0,1,-32.047,-35.236)">
        <path d="M62.094,101.671L41.454,81.714C40.169,80.472 41.049,78.298 42.835,78.298L55.29,78.298C55.815,78.298 56.318,78.506 56.691,78.876L71.814,93.903C73.068,95.149 75.202,94.261 75.202,92.493L75.202,37.223C75.202,36.126 76.092,35.236 77.189,35.236L57.401,35.236C43.456,35.236 32.047,45.025 32.047,56.988L32.047,115.206C32.047,121.62 35.345,127.391 40.536,131.381L62.262,104.343C62.905,103.543 62.833,102.384 62.094,101.671ZM39.49,63.426L39.49,61.155C39.49,58.871 41.342,57.018 43.626,57.018L52.789,57.018C55.074,57.018 56.925,58.87 56.925,61.155L56.925,63.426C56.925,65.711 55.073,67.563 52.789,67.563L43.626,67.563C41.342,67.562 39.49,65.71 39.49,63.426Z" style="fill:rgb(33,31,45);fill-rule:nonzero;"/>
        <path d="M75.202,134.972L75.202,115.197C75.202,114.67 74.993,114.165 74.62,113.792C73.777,112.949 72.386,113.033 71.65,113.972L54.237,136.198C54.075,136.405 53.871,136.566 53.648,136.692C54.877,136.851 56.123,136.959 57.401,136.959L77.189,136.959C76.092,136.959 75.202,136.069 75.202,134.972Z" style="fill:rgb(33,31,45);fill-rule:nonzero;"/>
        <path d="M114.086,113.971C113.351,113.032 111.96,112.948 111.117,113.791C110.744,114.164 110.535,114.669 110.535,115.196L110.535,134.971C110.535,136.068 109.645,136.958 108.548,136.958L125.902,136.958C127.886,136.958 129.81,136.739 131.666,136.365C131.61,136.309 131.549,136.259 131.5,136.196L114.086,113.971Z" style="fill:rgb(33,31,45);fill-rule:nonzero;"/>
        <path d="M151.255,115.206L151.255,56.989C151.255,45.025 139.845,35.237 125.901,35.237L108.547,35.237C109.645,35.237 110.534,36.127 110.534,37.224L110.534,92.494C110.534,94.261 112.668,95.149 113.922,93.904L129.045,78.877C129.417,78.507 129.921,78.299 130.446,78.299L142.9,78.299C144.687,78.299 145.566,80.473 144.281,81.715L123.641,101.672C122.903,102.386 122.83,103.545 123.473,104.345L144.227,130.173C148.567,126.264 151.255,120.996 151.255,115.206Z" style="fill:rgb(33,31,45);fill-rule:nonzero;"/>
        <path d="M96.983,134.972L96.983,37.223C96.983,36.126 97.873,35.236 98.97,35.236L86.766,35.236C87.864,35.236 88.753,36.126 88.753,37.223L88.753,134.971C88.753,136.068 87.863,136.958 86.766,136.958L98.971,136.958C97.873,136.959 96.983,136.069 96.983,134.972Z" style="fill:rgb(33,31,45);fill-rule:nonzero;"/>
    </g>
</svg>
